X:1
T:Reynard The Fox (2)
M:4/4
L:1/4
K:D
 A A| D3/2 D/2 D F| A2 A B| =c3/2 c/2 B G| A2| z d/2d/2| d3/2 A/2 A G|\
 F D2 D| E2 E F| E2| z A| A2 B B| d A2 G| F2 D F| G z| z E| D- F A d|\
 B- G- A A| D2 E C| D z| A/2 A3/2| D2 D3/2 D/2| D z F/2 F3/2| E2 E3/2 E/2|\
 E z| F/2 G3/2| A2 d3/2 d/2| d A F3/2 E/2| E- D D3/2 D/2| D2||

